svgs/regular/diagram-predecessor.svg

<svg xmlns="http://www.w3.org/2000/svg" viewBox="0 0 512 512"><!--! Font Awesome Pro 6.5.1 by @fontawesome - https://fontawesome.com License - https://fontawesome.com/license (Commercial License) Copyright 2023 Fonticons, Inc. --><path d="M464 416l0-64c0-8.8-7.2-16-16-16L64 336c-8.8 0-16 7.2-16 16l0 64c0 8.8 7.2 16 16 16l384 0c8.8 0 16-7.2 16-16zm-16 64L64 480c-35.3 0-64-28.7-64-64l0-64c0-35.3 28.7-64 64-64l384 0c35.3 0 64 28.7 64 64l0 64c0 35.3-28.7 64-64 64zM288 160c0 35.3-28.7 64-64 64L64 224c-35.3 0-64-28.7-64-64L0 96C0 60.7 28.7 32 64 32l144 0 16 0 144 0c39.8 0 72 32.2 72 72l0 38.1 23-23c9.4-9.4 24.6-9.4 33.9 0s9.4 24.6 0 33.9l-64 64c-9.4 9.4-24.6 9.4-33.9 0l-64-64c-9.4-9.4-9.4-24.6 0-33.9s24.6-9.4 33.9 0l23 23 0-38.1c0-13.3-10.7-24-24-24l-82 0c1.3 5.1 2 10.5 2 16l0 64z"/></svg>

<svg xmlns="http://www.w3.org/2000/svg" viewBox="0 0 512 512"><!--! Font Awesome Pro 6.1.1 by @fontawesome - https://fontawesome.com License - https://fontawesome.com/license (Commercial License) Copyright 2022 Fonticons, Inc. --><path d="M64 480C28.65 480 0 451.3 0 416V352C0 316.7 28.65 288 64 288H448C483.3 288 512 316.7 512 352V416C512 451.3 483.3 480 448 480H64zM464 416V352C464 343.2 456.8 336 448 336H64C55.16 336 48 343.2 48 352V416C48 424.8 55.16 432 64 432H448C456.8 432 464 424.8 464 416zM288 160C288 195.3 259.3 224 224 224H64C28.65 224 0 195.3 0 160V96C0 60.65 28.65 32 64 32H368C407.8 32 440 64.24 440 104V142.1L463 119C472.4 109.7 487.6 109.7 496.1 119C506.3 128.4 506.3 143.6 496.1 152.1L432.1 216.1C423.6 226.3 408.4 226.3 399 216.1L335 152.1C325.7 143.6 325.7 128.4 335 119C344.4 109.7 359.6 109.7 368.1 119L392 142.1V104C392 90.75 381.3 80 368 80H285.1C287.3 85.11 288 90.48 288 96V160z"/></svg>
